X:6
T:6 Vidit suum dulcem natum
T:Canto solo
M:C
L:1/8
%%maxshrink 0.6
%%staves s | {1 2 3}
Q:"A Tempo giusto"
K:Fm
V:s name=Sopran dyn=up
z8|z8|z8|
V:1 name="Str.\nBc."
c2(f//e3//)(d//c3//) {e}dc3|B2(c//B3//)(A//G3//) ([CA]/[B,G]/){[B,G]}[A,F]3|z/(d/c/d/ c/d/c/d/) wg/(d/c/=B/){B}c2-|
V:2
AAAA BAAA|GGG2x4|!dolce!A4G4|
V:3
F,F,F,F, F,F,F,F,|F,F,=E,E, F,F,,A,,C,|F,4=E,4|
V:s		% M4
z8|z8|z8|
V:1
c/(c/=B/c/ B/c/B/c/) wf/(c/_B/=A/){A}B2-|B/(d/B/_A/) (G/F/=E/F/) (E/G/c/)B,/C2|_dd2=e ff- (f/_e//d//c/B/)|
V:2
_G4F4-|F2=B,2C3C|!forte!F2G2C2F2-|
V:3
_E,4=D,4|_D,4C,2C2-|C2B,2A,2B,2|
% (24)
V:s		% M7
z8|z8|z4(c2f//e3//) (d//c3//)|
w:Vi --dit_
V:1
{B}A3G dd2=e|ff- (f/_e//d//c/B/){B}A2-A/(F/G/=E/)|FCA,2[Ac][Ac][Ac][Ac]|
V:2
F2=E2!dolce!F2G2|cB cD CCCC|A,2z2!dolce!x4|
V:3
C2C,4B,,2|A,,G,,A,,B,, C,C,C,C,|F,,2z2F,F,F,F,|
V:s		% M10
dc3(B2c//B3//) (A//G3//)|(3A/G/F/ Fz2!dolce!d2d2|(d=B)wc2c2c2|
w:su-um dul --cem_ na --tum mo-ri-en -tem de-so-
V:1
[Bd][Ac][Ac][Ac] [GB][GB][Gc][GB]|A/G/Fz2z2d2-|d=Bc2z2c2-|
V:2
x8|CF/=E/ FG!dolce!A4|G4_G4|
V:3
F,F,F,F, F,F,=E,E,|F,F,,A,,C,F,4|=E,4_E,4|
V:s		% M13
(c=A)wB2B2B2|(BG)wA2Td2Tc2|Tc Bz2d2z2|d2z2c2z2|
w:la -tum, mo-ri-en -tem, de-so-la-tum, dum e-mi-
V:1
c=A_B2z2B2-|BG_A2w[Bd]2w[Ac]2|[Ac][GB]z2z2w[Bd]2|z2w[Bd]2z2w[Bc]2|
V:2
F8|E4x4|x4!dolcea!x4|!estacc!x8|
V:3
=D,4_D,4|C,4B,,G,A,=D,|E,2z2E,2z2|G,2z2A,2z2|
V:s		% M17
_c4B4-|B3BA2z2|z8|
w:sit spi -ri-tum.
V:1
z2w[A_c]2z2w[AB]2|z2w[GB]2Aa2(d|c)a2(d c)a2(d|
V:2
x8|x4A!forte!feG|A!dolce!feG A!forte!feG|
V:3
=D,2z2E,2z2|E,2z2A,, _D,C,B,,|A,,D,C,B,, A,,D,C,B,,|
% (25)
V:s		% M20
z8|(c2e//d3//) (c//B3//) B=A3|_GF3c/e/{c}d3|
w:Vi --dit_ su-um dul-cem na -tum
V:1
c/B/)d/B/{A}G2AEA,2|c2(e//d3//)(c//B3//) (B=A3)|_GF3(c/e/){c}d3|
V:2
AFEB,C2z2|!dolce!EEBB, CCCC|CCCC CB,B,B,|
V:3
A,,D,E,E,A,,2z2|A,A,_G,G, F,F,F,F,|=A,,A,,A,,A,, B,,B,,B,,B,,|
V:s		% M23
(B2f//e3//) (=d//c3//) c=B3|_AG3f/=d/{d}e3|g2B2{B}TA4|
w:mo --ri -en-tem de-so-la -tum, de-so-la-
V:1
B2(f//e3//)(=d//c3//) c=B3|_AG3(f/=d/){d}e3|[=eg][eg] [=EB][EB] {B}[FA][FA][FA][FA]|
V:2
DDc2=DDDD|=DDDD =DCCC|x8|
V:3
B,,B,,A,,A,, G,,G,,G,,G,,|=B,,B,,B,,B,, C,C,C,C,|[C,C][C,C][C,C][C,C] [C,C][C,C][=B,,=B,][B,,B,]|
V:s		% M26
G2z2d3=e|{=e}f3B{B}TA3G|F2(!forte!_g4f//e3//) (d//c3//)|
w:tum dum e-mi-sit spi-ri-tum. Vi --dit_
V:1
G2z2dd2=e|ff- (f/_e//d//c/B/){B}A3G|F2_g4(f//e3//)(d//c3//)|
V:2
=E3C!dolce!F2G2|A2{dB}F4=E2|x2!forte!z2_e4|
V:3
[C,C]2C4B,2|A,2B,2C2C,2|F,2z2[=A,,=A,]4|
V:s		% M29
d/c/ B(!forte!a4g//f3//) (=e//=d3//)|(3=e/=d/c/ cz2!dolce!_d2d2|(d=B)wc2c2c2|
w:su -um dul --cem_ na --tum mo-ri-en -tem de-so-
V:1
B2a4(g//f3//)(=e//=d3//)|[c=e]=B/c/C2z2_d2-|d=Bc2z2c2-|
V:2
d2!forte!z2f4|x4!dolce!A4|G4_G4|
V:3
[B,,B,]2z2[=B,,=B,][B,,B,][B,,B,][B,,B,]|[C,C]2z2F,4|=E,4_E,4|
% (26)
V:s		% M32
(c=A)wB2B2B2|{B}TA4G2z2|B2z2B2z2|
w:la -tum, de-so-la-tum, dum e-
V:1
c=A_B2z2B2|[F_A][FA][FA][FA] [=EG]w[c=e]w[eg]w[gb]|z2[GB]2z2[GB]2|
V:2
F8|x4x!forte!x3|!sottovs!x8|
V:3
=D,4_D,4|C,C,=B,,B,,C,2z2|C,2z2=E,2z2|
V:s		% M35
B2A2z4|!sottov!G4G4|G4A4|G6G2|
w:mi-sit dum e-mi-sit spi-ri-
V:1
z2[FA]2z2[FA]2|z2[FG]2z2[FG]2|z2[=EG]2z2[FA]2|z2[FG]2z2[=EG]2|
V:2
x8|x8|x8|x8|
V:3
F,2z2A,,2z2|B,,2z2=B,,2z2|C,2z2C,2z2|C,2z2C,2z2|
V:s		% M39
F4z4|z8|z8|z8|Hz8|]
w:tum.
V:1
F2w[fa]2z2[FA]2|[FG]2w[fg]2z2[FG]2|[=EG]2[=eg]2[fa]2[FA]2|[FG]2[FG]2[=EG]2[EG]2|F4Hz4|]
V:2
x2!sottov!x6|x8|x8|x8|x8|]
V:3
D,2z2!dolce!A,,2z2|B,,2z2=B,,2z2|C,2C,2C,2=B,,2|C,2C,2C,2C,2|F,,4Hz4|]

